assets/images/sections/tunes.svg

<svg width="97" height="96" viewBox="0 0 97 96" fill="none" xmlns="http://www.w3.org/2000/svg">
<path d="M44.0247 11.0681C44.9326 11.349 45.8212 11.6891 46.6838 12.0886C50.1843 14.001 50.9798 19.2405 48.219 22.1736H48.218C47.7546 22.6665 47.2533 23.0585 46.637 23.6248L46.3342 23.9031L46.5491 24.2537C47.3229 25.5193 48.1228 26.8401 48.9329 28.1521C55.1822 38.2734 61.4331 48.3946 67.6838 58.5154L67.6936 58.531C68.1647 59.2346 68.3641 60.0868 68.2542 60.9275C68.1442 61.7681 67.7327 62.5396 67.0969 63.0974C66.4791 63.6382 65.685 63.9323 64.8655 63.9255C64.1482 63.9195 63.4542 63.683 62.884 63.2546L62.6477 63.0593C62.1699 62.5914 61.7629 62.0558 61.4397 61.4695L61.4329 61.4578L61.426 61.447L52.5852 47.2117L43.7551 32.9695C43.6551 32.8056 43.5189 32.6335 43.4153 32.488L42.9651 31.8572L42.5754 32.5271L21.9016 68.073L21.4641 68.825H23.2327C30.4728 68.825 37.7127 68.822 44.9524 68.8162H44.9631L44.9729 68.8152C45.2618 68.8033 45.5502 68.8552 45.8176 68.9656C46.085 69.076 46.3257 69.2433 46.5227 69.4558L46.5305 69.4636C48.0727 71.0554 49.6371 72.6255 51.2239 74.1736L51.2493 74.199L51.2786 74.2195C51.4354 74.3342 51.5495 74.4988 51.6038 74.6863C51.6565 74.8687 51.6476 75.0624 51.5813 75.24C51.4946 75.4118 51.359 75.5539 51.1897 75.6443C51.0145 75.7378 50.8136 75.7717 50.6174 75.7429L50.5823 75.738H50.5452C39.2747 75.7264 28.0042 75.7224 16.7336 75.7253H16.7083L16.6829 75.7273C15.7531 75.8223 14.814 75.6935 13.9436 75.3523C13.1693 74.9873 12.5674 74.3331 12.2678 73.5281C11.9686 72.7239 11.9944 71.8341 12.3401 71.0496C13.4819 68.8032 14.7915 66.6473 16.0735 64.4373C18.309 60.583 20.5465 56.7293 22.7854 52.8767L29.5071 41.322C32.8429 35.5829 36.1761 29.8429 39.5071 24.1023L39.5168 24.0857L39.5247 24.0681C39.5616 23.9914 39.5943 23.9125 39.6213 23.8318L39.7395 23.4792L39.4358 23.2644C38.237 22.4178 37.3406 21.2071 36.8811 19.8103H36.8821C36.6017 18.9092 36.5128 17.9588 36.6223 17.0212C36.7318 16.0837 37.0374 15.1795 37.5178 14.3679C37.9982 13.5565 38.6436 12.8554 39.4114 12.3103C40.1792 11.7653 41.0525 11.3884 41.9749 11.2039L41.9846 11.2019L41.9934 11.2C42.1433 11.1639 42.2911 11.1186 42.4368 11.0681H44.0247ZM43.6057 12.6453C42.9331 12.596 42.2571 12.6822 41.6184 12.8992C40.9798 13.1161 40.391 13.4592 39.887 13.908C39.3829 14.3568 38.9741 14.9026 38.6838 15.5125C38.3936 16.1224 38.2274 16.7847 38.1965 17.4597C38.1608 18.1365 38.2617 18.8135 38.4915 19.4509C38.7216 20.0894 39.0771 20.6754 39.5374 21.1736C39.9977 21.6717 40.5534 22.0725 41.1711 22.3513C41.7889 22.6301 42.4567 22.7823 43.134 22.7976H43.1428C44.4133 22.805 45.6405 22.3373 46.5862 21.4871C47.5318 20.6368 48.1283 19.4643 48.259 18.198V18.197C48.3264 17.5247 48.2585 16.8457 48.0598 16.2C47.8611 15.5541 47.5355 14.9539 47.1018 14.4363C46.6683 13.919 46.1356 13.4939 45.5354 13.1863C44.9349 12.8785 44.2784 12.6946 43.6057 12.6453Z" fill="#FAC46D" stroke="#89662D"/>
<path d="M36.1858 53.1294C36.2953 53.1476 36.4001 53.1884 36.4924 53.2505V53.2515C36.6357 53.3536 36.7718 53.4656 36.8987 53.5874L37.0227 53.7124L37.0315 53.7222C46.8026 63.5179 56.5688 73.3191 66.3284 83.1274V83.1284C66.6343 83.447 66.8416 83.8476 66.927 84.2817H66.928C66.9548 84.437 66.9142 84.5299 66.8176 84.6265C66.7089 84.7352 66.5357 84.8334 66.3079 84.9321H66.0042C65.5947 84.6007 65.2383 84.342 64.9065 84.0093V84.0083C55.2148 74.3004 45.5265 64.5887 35.842 54.8735C35.5804 54.6111 35.4036 54.4058 35.3157 54.2036C35.2432 54.0367 35.2224 53.8534 35.3459 53.5864L35.3489 53.5806C35.3956 53.4759 35.4646 53.3829 35.551 53.3081C35.6374 53.2334 35.7392 53.1788 35.8489 53.1479C35.9585 53.1171 36.0735 53.1107 36.1858 53.1294Z" fill="#FAC46D" stroke="#89662D"/>
<mask id="path-3-inside-1_201_8132" fill="white">
<path d="M60.6565 68.2676C61.8659 68.3279 63.0804 68.3352 64.2797 68.4609C65.2543 68.631 66.1264 69.1702 66.7156 69.967C67.3049 70.7639 67.5663 71.7573 67.4457 72.742C67.3226 73.6452 66.8998 74.4805 66.2455 75.1133C65.5913 75.7461 64.7436 76.1395 63.8391 76.2302C63.3502 76.2944 62.853 76.2349 62.3928 76.0572C61.9327 75.8795 61.5241 75.5893 61.2043 75.2128C59.8109 73.6867 58.3109 72.2638 56.8427 70.8104C56.596 70.6307 56.4142 70.3755 56.3247 70.0832C56.2352 69.7909 56.2428 69.4774 56.3464 69.1898C56.4722 68.8963 56.6909 68.6525 56.9687 68.4962C57.2465 68.3399 57.568 68.2797 57.8833 68.325C58.8058 68.317 59.7283 68.325 60.6507 68.325V68.2676"/>
</mask>
<path d="M60.6565 68.2676C61.8659 68.3279 63.0804 68.3352 64.2797 68.4609C65.2543 68.631 66.1264 69.1702 66.7156 69.967C67.3049 70.7639 67.5663 71.7573 67.4457 72.742C67.3226 73.6452 66.8998 74.4805 66.2455 75.1133C65.5913 75.7461 64.7436 76.1395 63.8391 76.2302C63.3502 76.2944 62.853 76.2349 62.3928 76.0572C61.9327 75.8795 61.5241 75.5893 61.2043 75.2128C59.8109 73.6867 58.3109 72.2638 56.8427 70.8104C56.596 70.6307 56.4142 70.3755 56.3247 70.0832C56.2352 69.7909 56.2428 69.4774 56.3464 69.1898C56.4722 68.8963 56.6909 68.6525 56.9687 68.4962C57.2465 68.3399 57.568 68.2797 57.8833 68.325C58.8058 68.317 59.7283 68.325 60.6507 68.325V68.2676" fill="#FAC46D"/>
<path d="M64.2797 68.4609L64.4517 67.4758L64.418 67.4699L64.384 67.4664L64.2797 68.4609ZM67.4457 72.742L68.4366 72.8771L68.4382 72.8636L67.4457 72.742ZM63.8391 76.2302L63.7394 75.2352L63.7242 75.2367L63.709 75.2387L63.8391 76.2302ZM61.2043 75.2128L61.9665 74.5654L61.9549 74.5518L61.9428 74.5385L61.2043 75.2128ZM56.8427 70.8104L57.5463 70.0997L57.4926 70.0465L57.4315 70.002L56.8427 70.8104ZM56.3464 69.1898L55.4272 68.7958L55.4156 68.8231L55.4055 68.8509L56.3464 69.1898ZM57.8833 68.325L57.7412 69.3148L57.8162 69.3256L57.892 69.325L57.8833 68.325ZM60.6507 68.325V69.325H61.6507V68.325H60.6507ZM60.6565 68.2676L60.6067 69.2663C61.8766 69.3297 63.0107 69.3333 64.1755 69.4555L64.2797 68.4609L64.384 67.4664C63.1502 67.337 61.8553 67.3261 60.7063 67.2688L60.6565 68.2676ZM64.2797 68.4609L64.1078 69.446C64.8288 69.5719 65.4748 69.9709 65.9116 70.5616L66.7156 69.967L67.5197 69.3724C66.778 68.3695 65.6798 67.6901 64.4517 67.4758L64.2797 68.4609ZM66.7156 69.967L65.9116 70.5616C66.3485 71.1524 66.5426 71.8895 66.4531 72.6204L67.4457 72.742L68.4382 72.8636C68.5899 71.6251 68.2613 70.3753 67.5197 69.3724L66.7156 69.967ZM67.4457 72.742L66.4548 72.6069C66.362 73.2882 66.0431 73.9178 65.5503 74.3945L66.2455 75.1133L66.9407 75.8321C67.7565 75.0431 68.2831 74.0021 68.4365 72.8771L67.4457 72.742ZM66.2455 75.1133L65.5503 74.3945C65.0575 74.8711 64.4196 75.167 63.7394 75.2352L63.8391 76.2302L63.9389 77.2252C65.0676 77.1121 66.125 76.6211 66.9407 75.8321L66.2455 75.1133ZM63.8391 76.2302L63.709 75.2387C63.3859 75.2811 63.0573 75.2418 62.7531 75.1244L62.3928 76.0572L62.0326 76.9901C62.6487 77.228 63.3145 77.3077 63.9692 77.2217L63.8391 76.2302ZM62.3928 76.0572L62.7531 75.1244C62.4488 75.0069 62.1783 74.8148 61.9665 74.5654L61.2043 75.2128L60.4422 75.8603C60.8699 76.3637 61.4166 76.7522 62.0326 76.9901L62.3928 76.0572ZM61.2043 75.2128L61.9428 74.5385C60.5267 72.9877 58.9941 71.5331 57.5463 70.0997L56.8427 70.8104L56.1392 71.521C57.6276 72.9946 59.095 74.3858 60.4659 75.8871L61.2043 75.2128ZM56.8427 70.8104L57.4315 70.002C57.3601 69.9501 57.3071 69.8759 57.2808 69.7904L56.3247 70.0832L55.3685 70.3761C55.5214 70.8751 55.832 71.3113 56.254 71.6187L56.8427 70.8104ZM56.3247 70.0832L57.2808 69.7904C57.2546 69.7048 57.2569 69.6129 57.2872 69.5287L56.3464 69.1898L55.4055 68.8509C55.2287 69.3419 55.2157 69.8771 55.3685 70.3761L56.3247 70.0832ZM56.3464 69.1898L57.2655 69.5837C57.3049 69.4918 57.3731 69.416 57.4591 69.3677L56.9687 68.4962L56.4783 67.6247C56.0086 67.889 55.6394 68.3008 55.4272 68.7958L56.3464 69.1898ZM56.9687 68.4962L57.4591 69.3677C57.545 69.3194 57.6441 69.3009 57.7412 69.3148L57.8833 68.325L58.0255 67.3352C57.4919 67.2585 56.9481 67.3604 56.4783 67.6247L56.9687 68.4962ZM57.8833 68.325L57.892 69.325C58.8094 69.317 59.716 69.325 60.6507 69.325V68.325V67.325C59.7405 67.325 58.8022 67.317 57.8747 67.325L57.8833 68.325ZM60.6507 68.325H61.6507V68.2676H60.6507H59.6507V68.325H60.6507Z" fill="#89662D" mask="url(#path-3-inside-1_201_8132)"/>
<path d="M14.491 31.1091C16.5212 30.675 18.2479 31.6649 18.5414 33.0523C18.8351 34.4409 17.6584 36.0502 15.6281 36.4843C13.5977 36.9183 11.8729 35.9315 11.5786 34.541C11.2844 33.1504 12.4605 31.5433 14.491 31.1091ZM28.1033 24.8772C30.1305 24.4438 31.8558 25.4311 32.1501 26.8221C32.4437 28.2108 31.2671 29.8201 29.2368 30.2542C27.2065 30.6881 25.4816 29.7013 25.1873 28.3108C24.8933 26.9208 26.0749 25.311 28.1033 24.8772Z" fill="#FAC46D" stroke="#89662D"/>
<path d="M15.2731 17.6435L18.4285 32.5625L17.8192 32.6928L14.6639 17.7738L15.2731 17.6435ZM29.2242 12.9981L32.0433 26.3272L31.434 26.4575L28.6149 13.1284L29.2242 12.9981Z" fill="#FAC46D" stroke="#89662D"/>
<path d="M27.707 11.8378C27.8564 11.7898 28.0144 11.774 28.1702 11.7907C28.3261 11.8076 28.4773 11.856 28.6129 11.9348C28.7485 12.0135 28.8657 12.1204 28.9576 12.2476C29.0495 12.3748 29.1142 12.5199 29.1466 12.6735L29.3532 13.65L14.7805 18.3237L14.527 17.1256C14.4693 16.8533 14.5151 16.5693 14.6547 16.3284C14.777 16.1175 14.9636 15.9522 15.1859 15.8574L15.2831 15.8216L27.707 11.8378Z" fill="#FAC46D" stroke="#89662D"/>
<path d="M80.2764 48.0469C80.6413 48.0806 82.3922 48.2249 84.2236 48.6592C85.1404 48.8766 86.0588 49.1619 86.8252 49.5332C87.5829 49.9004 88.1345 50.3254 88.4219 50.7959L88.4443 50.835C89.3605 52.412 88.9718 54.0055 88.2656 55.2988C87.6154 56.4895 86.7507 57.3266 86.5273 57.5498C86.4821 57.5804 86.4283 57.5956 86.374 57.5908C86.314 57.5854 86.2574 57.5573 86.2168 57.5117C86.1763 57.4661 86.1547 57.4063 86.1562 57.3447C86.1579 57.283 86.1827 57.2242 86.2256 57.1807L86.2246 57.1797C86.7102 56.7076 87.1435 56.1842 87.5146 55.6172L87.5303 55.5928L87.5439 55.5664C87.5686 55.517 87.7281 55.1995 87.7637 54.8027C87.8011 54.3851 87.6995 53.8219 87.1289 53.4443L87.1191 53.4385L87.1104 53.4326L86.7393 53.2227C85.8716 52.7577 84.9311 52.4427 83.957 52.291H83.958C82.8699 52.0579 81.8433 51.8998 81.0908 51.8096L80.5312 51.7432V65.3779C80.6219 67.3558 78.9788 69.5454 76.4004 70.377L76.3975 70.3779C75.7376 70.5961 75.0472 70.7075 74.3525 70.708H74.3477C73.5024 70.7175 72.6675 70.513 71.9219 70.1133L71.9199 70.1123L71.7656 70.0254C71.4114 69.8143 71.0972 69.5411 70.8389 69.2178C70.5446 68.8494 70.328 68.4243 70.2041 67.9688C69.6593 65.8375 71.3541 63.2297 74.2412 62.2949L74.248 62.293L74.2549 62.29C74.9738 62.0344 75.7368 61.9277 76.498 61.9756C77.2545 62.0232 77.9939 62.2226 78.6719 62.5625C78.8554 62.6668 79.0302 62.7859 79.1943 62.9189L80.0098 63.5801V48.0293L80.2764 48.0469Z" fill="#FAC46D" stroke="#89662D"/>
</svg>

<svg xmlns="http://www.w3.org/2000/svg" width="97" height="96" fill="none"><path fill="#FAC46D" stroke="#89662D" d="M44.025 11.068c.908.281 1.796.621 2.659 1.02 3.5 1.913 4.296 7.153 1.535 10.086h-.001c-.463.492-.965.884-1.581 1.45l-.303.28.215.35c.774 1.265 1.574 2.586 2.384 3.898l18.75 30.363.01.016a3.494 3.494 0 0 1-.596 4.566 3.345 3.345 0 0 1-4.213.158l-.236-.196a6.86 6.86 0 0 1-1.208-1.59l-.007-.011-.007-.011-8.84-14.235-8.83-14.243c-.1-.163-.237-.336-.34-.481l-.45-.63-.39.67-20.674 35.545-.438.752h1.769c7.24 0 14.48-.003 21.72-.009h.02a2 2 0 0 1 1.55.64l.008.008a236.042 236.042 0 0 0 4.693 4.71l.025.025.03.02a.882.882 0 0 1 .302 1.021.932.932 0 0 1-.391.404.93.93 0 0 1-.573.099l-.035-.005h-.037c-11.27-.012-22.54-.016-33.811-.013h-.026l-.025.002a5.87 5.87 0 0 1-2.74-.375 3.281 3.281 0 0 1-1.675-1.824 3.297 3.297 0 0 1 .072-2.478c1.142-2.247 2.451-4.403 3.733-6.613 2.236-3.854 4.474-7.708 6.712-11.56l6.722-11.555c3.336-5.74 6.67-11.48 10-17.22l.01-.016.008-.018c.037-.077.07-.155.096-.236l.118-.353-.303-.215a6.849 6.849 0 0 1-2.555-3.454h.001a6.752 6.752 0 0 1 .636-5.442 6.698 6.698 0 0 1 4.457-3.164l.01-.002.008-.002c.15-.036.298-.081.444-.132h1.588Zm-.42 1.577a5.034 5.034 0 0 0-3.718 1.263 5.058 5.058 0 0 0-1.69 3.552 5.082 5.082 0 0 0 2.974 4.891 5.05 5.05 0 0 0 1.963.447h.009a5.106 5.106 0 0 0 3.443-1.31 5.132 5.132 0 0 0 1.673-3.29v-.001a5.07 5.07 0 0 0-2.724-5.01 5.039 5.039 0 0 0-1.93-.542Z"/><path fill="#FAC46D" stroke="#89662D" d="M36.186 53.13c.11.018.214.058.306.12v.002c.144.102.28.214.407.335l.124.125.008.01c9.772 9.796 19.538 19.597 29.297 29.405v.001c.306.319.514.72.599 1.154h.001a.348.348 0 0 1-.11.344c-.11.11-.282.207-.51.306h-.304c-.41-.331-.766-.59-1.098-.923-9.691-9.709-19.38-19.42-29.064-29.136-.262-.262-.438-.467-.526-.67-.073-.166-.094-.35.03-.617l.003-.005a.781.781 0 0 1 .837-.452Z"/><mask id="a" fill="#fff"><path d="M60.657 68.268c1.209.06 2.423.067 3.623.193.974.17 1.846.71 2.436 1.506.589.797.85 1.79.73 2.775a4.062 4.062 0 0 1-1.2 2.371 4.041 4.041 0 0 1-2.407 1.117 2.949 2.949 0 0 1-2.635-1.017c-1.393-1.526-2.893-2.95-4.361-4.403a1.41 1.41 0 0 1-.497-1.62 1.452 1.452 0 0 1 1.537-.865c.923-.008 1.845 0 2.768 0v-.057"/></mask><path fill="#FAC46D" d="M60.657 68.268c1.209.06 2.423.067 3.623.193.974.17 1.846.71 2.436 1.506.589.797.85 1.79.73 2.775a4.062 4.062 0 0 1-1.2 2.371 4.041 4.041 0 0 1-2.407 1.117 2.949 2.949 0 0 1-2.635-1.017c-1.393-1.526-2.893-2.95-4.361-4.403a1.41 1.41 0 0 1-.497-1.62 1.452 1.452 0 0 1 1.537-.865c.923-.008 1.845 0 2.768 0v-.057"/><path fill="#89662D" d="m64.28 68.46.172-.984-.034-.006-.034-.004-.104.995Zm3.166 4.282.99.135.002-.013-.992-.122Zm-3.607 3.488-.1-.995-.015.002-.015.002.13.991Zm-2.635-1.017.763-.648-.012-.013-.012-.014-.739.675Zm-4.361-4.403.703-.71-.053-.053-.062-.045-.588.808Zm-.497-1.62-.919-.394-.011.027-.01.028.94.339Zm1.537-.865-.142.99.075.01h.076l-.009-1Zm2.768 0v1h1v-1h-1Zm.005-.057-.05.998c1.27.064 2.405.067 3.57.19l.104-.995.104-.995c-1.234-.129-2.529-.14-3.678-.197l-.05.999Zm3.624.193-.172.985a2.854 2.854 0 0 1 1.804 1.116l.804-.595.804-.595a4.854 4.854 0 0 0-3.068-1.896l-.172.985Zm2.436 1.506-.804.595c.436.59.63 1.328.541 2.058l.993.122.992.122a4.875 4.875 0 0 0-.918-3.492l-.804.595Zm.73 2.775-.991-.135a3.062 3.062 0 0 1-.905 1.787l.696.72.695.718a5.062 5.062 0 0 0 1.495-2.955l-.99-.135Zm-1.2 2.371-.696-.719a3.041 3.041 0 0 1-1.81.841l.1.995.099.995a5.04 5.04 0 0 0 3.002-1.393l-.695-.719Zm-2.407 1.117-.13-.991a1.95 1.95 0 0 1-.956-.115l-.36.933-.36.933a3.949 3.949 0 0 0 1.936.232l-.13-.992Zm-1.446-.173.36-.933a1.957 1.957 0 0 1-.786-.559l-.763.648-.762.647c.428.504.975.892 1.59 1.13l.36-.933Zm-1.189-.844.739-.674c-1.416-1.551-2.949-3.006-4.397-4.44l-.703.711-.704.711c1.489 1.474 2.956 2.865 4.327 4.366l.738-.674Zm-4.361-4.403.588-.808a.41.41 0 0 1-.15-.212l-.956.293-.957.293c.153.5.464.935.886 1.243l.589-.809Zm-.518-.727.956-.293a.415.415 0 0 1 .006-.261l-.94-.34-.941-.338a2.415 2.415 0 0 0-.038 1.525l.957-.293Zm.021-.893.92.394a.452.452 0 0 1 .193-.216l-.49-.872-.49-.871c-.47.264-.84.676-1.052 1.17l.92.395Zm.623-.694.49.872a.446.446 0 0 1 .282-.053l.142-.99.142-.99a2.446 2.446 0 0 0-1.547.29l.49.871Zm.914-.171.009 1c.917-.008 1.824 0 2.759 0v-2c-.91 0-1.849-.008-2.776 0l.008 1Zm2.768 0h1v-.057h-2v.057h1Z" mask="url(#a)"/><path fill="#FAC46D" stroke="#89662D" d="M14.491 31.11c2.03-.435 3.757.555 4.05 1.942.294 1.389-.883 2.998-2.913 3.432-2.03.434-3.755-.553-4.05-1.943-.294-1.39.883-2.998 2.913-3.432Zm13.612-6.233c2.027-.433 3.753.554 4.047 1.945.294 1.389-.883 2.998-2.913 3.432-2.03.434-3.755-.553-4.05-1.943-.294-1.39.888-3 2.916-3.434Z"/><path fill="#FAC46D" stroke="#89662D" d="m15.273 17.643 3.155 14.92-.609.13-3.155-14.92.61-.13Zm13.951-4.645 2.82 13.33-.61.13-2.82-13.33.61-.13Z"/><path fill="#FAC46D" stroke="#89662D" d="M27.707 11.838a1.124 1.124 0 0 1 1.44.836l.206.976-14.573 4.674-.253-1.198a1.125 1.125 0 0 1 .659-1.269l.097-.035 12.424-3.984ZM80.276 48.047c.365.034 2.116.178 3.948.612.916.218 1.835.503 2.601.874.758.367 1.31.792 1.597 1.263l.022.039c.916 1.577.528 3.17-.178 4.464-.65 1.19-1.515 2.028-1.739 2.25a.237.237 0 0 1-.37-.204.243.243 0 0 1 .069-.164l-.001-.001a9.23 9.23 0 0 0 1.29-1.563l.015-.024.014-.027c.025-.049.184-.367.22-.763.037-.418-.064-.981-.635-1.359l-.01-.006-.009-.005-.37-.21a8.735 8.735 0 0 0-2.783-.932h.001a32.748 32.748 0 0 0-2.867-.481l-.56-.067v13.635c.09 1.978-1.552 4.167-4.13 4.999h-.004a6.53 6.53 0 0 1-2.044.331h-.005a5.016 5.016 0 0 1-2.426-.595h-.002l-.154-.088a3.44 3.44 0 0 1-1.562-2.056c-.545-2.131 1.15-4.74 4.037-5.674l.007-.002.007-.003a5.638 5.638 0 0 1 4.417.273c.183.104.358.223.522.356l.816.661V48.03l.266.017Z"/></svg>
